src/pos-icons/hanger.svg

<svg height="24" viewBox="0 0 24 24" width="24" xmlns="http://www.w3.org/2000/svg"><path d="m12 4a3.5 3.5 0 0 0 -3.5 3.5h2a1.5 1.5 0 0 1 1.5-1.5 1.5 1.5 0 0 1 1.5 1.5 1.5 1.5 0 0 1 -1.5 1.5c-.55 0-1 .45-1 1v1.75l-8.6 6.45a1 1 0 0 0 .6 1.8h18a1 1 0 0 0 .6-1.8l-8.6-6.45v-.9a3.5 3.5 0 0 0 2.5-3.35 3.5 3.5 0 0 0 -3.5-3.5m0 9.5 6 4.5h-12z"/></svg>

<?xml version="1.0" encoding="UTF-8"?><!DOCTYPE svg PUBLIC "-//W3C//DTD SVG 1.1//EN" "http://www.w3.org/Graphics/SVG/1.1/DTD/svg11.dtd"><svg xmlns="http://www.w3.org/2000/svg" xmlns:xlink="http://www.w3.org/1999/xlink" version="1.1" id="mdi-hanger" width="24" height="24" viewBox="0 0 24 24"><path d="M12 4A3.5 3.5 0 0 0 8.5 7.5H10.5A1.5 1.5 0 0 1 12 6A1.5 1.5 0 0 1 13.5 7.5A1.5 1.5 0 0 1 12 9C11.45 9 11 9.45 11 10V11.75L2.4 18.2A1 1 0 0 0 3 20H21A1 1 0 0 0 21.6 18.2L13 11.75V10.85A3.5 3.5 0 0 0 15.5 7.5A3.5 3.5 0 0 0 12 4M12 13.5L18 18H6Z" /></svg>
